X:307
T: WEIB DU SOLLST GSCHWIND HAMET GEHN
N: E0910C
O: Europa, Mitteleuropa, Deutschland, Bayern
R: Ehestands - Lied
M: 3/4
L: 1/16
K: G
 | G3GG4G4 | A3AG4z2
G2 | A3AG4A4 | B8z4 |
A3AA8 | A3dd8 |
d3cB2A2G2F2 | E3EE8 |
D2D2D2E2E2D2 | D3GG8 |
d3cB2A2G2F2 | E3EE8 |
D2D2D2E2E2D2 | D3GG8

@@@ Tune index: 4620
